Icons/ee_tpilet_tpilet.svg

<svg viewBox="0 0 48 48"><defs><linearGradient id="linearGradient3764" x1="1" x2="47" gradientUnits="userSpaceOnUse" gradientTransform="translate(-48.000001,0.00221467)"><stop stop-color="#ec6f00" stop-opacity="1"/><stop offset="1" stop-color="#f70" stop-opacity="1"/></linearGradient><clipPath id="clipPath-515292781"><g transform="translate(0,-1004.3622)"><rect rx="4" y="1005.36" x="1" height="46" width="46" fill="#1890d0"/></g></clipPath><clipPath id="clipPath-527957938"><g transform="translate(0,-1004.3622)"><rect rx="4" y="1005.36" x="1" height="46" width="46" fill="#1890d0"/></g></clipPath></defs><g><path d="m 1 43 l 0 0.25 c 0 2.216 1.784 4 4 4 l 38 0 c 2.216 0 4 -1.784 4 -4 l 0 -0.25 c 0 2.216 -1.784 4 -4 4 l -38 0 c -2.216 0 -4 -1.784 -4 -4 z m 0 0.5 l 0 0.5 c 0 2.216 1.784 4 4 4 l 38 0 c 2.216 0 4 -1.784 4 -4 l 0 -0.5 c 0 2.216 -1.784 4 -4 4 l -38 0 c -2.216 0 -4 -1.784 -4 -4 z" opacity="0.02"/><path d="m 1 43.25 l 0 0.25 c 0 2.216 1.784 4 4 4 l 38 0 c 2.216 0 4 -1.784 4 -4 l 0 -0.25 c 0 2.216 -1.784 4 -4 4 l -38 0 c -2.216 0 -4 -1.784 -4 -4 z" opacity="0.05"/><path d="m 1 43 l 0 0.25 c 0 2.216 1.784 4 4 4 l 38 0 c 2.216 0 4 -1.784 4 -4 l 0 -0.25 c 0 2.216 -1.784 4 -4 4 l -38 0 c -2.216 0 -4 -1.784 -4 -4 z" opacity="0.1"/></g><g><rect width="46" height="46" x="-47" y="1" rx="4" transform="matrix(0,-1,1,0,0,0)" fill="url(#linearGradient3764)" fill-opacity="1"/></g><g><g clip-path="url(#clipPath-515292781)"><g opacity="0.1"><!-- color: #ff7700 --><g><path d="m 14 11 c -1.66 0 -3 1.34 -3 3 l 0 20 c 0 1.66 1.34 3 3 3 l 20 0 c 1.66 0 3 -1.34 3 -3 l 0 -20 c 0 -1.66 -1.34 -3 -3 -3 m -16 7 l 14 0 l 0 3 c 0 1 -1 2 -2 2 l -3 0 l 0 11 l -4 0 c -1 0 -2 -1 -2 -2 l 0 -9 l -5 0 l 0 -3 c 0 -1 1 -2 2 -2 m 0 0" fill="#000"/><path d="m 32 18 l -12 -4 c 0 1 1 4 2 4 m 10 0" fill="#000"/></g></g></g></g><g><g clip-path="url(#clipPath-527957938)"><g transform="translate(0,-1)"><!-- color: #ff7700 --><g><path d="m 14 11 c -1.66 0 -3 1.34 -3 3 l 0 20 c 0 1.66 1.34 3 3 3 l 20 0 c 1.66 0 3 -1.34 3 -3 l 0 -20 c 0 -1.66 -1.34 -3 -3 -3 m -16 7 l 14 0 l 0 3 c 0 1 -1 2 -2 2 l -3 0 l 0 11 l -4 0 c -1 0 -2 -1 -2 -2 l 0 -9 l -5 0 l 0 -3 c 0 -1 1 -2 2 -2 m 0 0" fill="#f9f9f9"/><path d="m 32 18 l -12 -4 c 0 1 1 4 2 4 m 10 0" fill="#ffb47f"/></g></g></g></g><g><g transform="translate(0,-1004.3622)"><path d="m 1 1043.36 0 4 c 0 2.216 1.784 4 4 4 l 38 0 c 2.216 0 4 -1.784 4 -4 l 0 -4 c 0 2.216 -1.784 4 -4 4 l -38 0 c -2.216 0 -4 -1.784 -4 -4 z" opacity="0.1"/></g></g></svg>

<svg viewBox="0 0 48 48" xmlns:xlink="http://www.w3.org/1999/xlink">
 <defs>
  <linearGradient id="0">
   <stop stop-opacity="0"/>
   <stop offset="1"/>
  </linearGradient>
  <linearGradient xlink:href="#0" id="1" gradientUnits="userSpaceOnUse" gradientTransform="translate(4e-7,-48)" y1="47" x2="0" y2="1"/>
  <clipPath id="2">
   <g transform="translate(0,-1004.3622)">
    <rect rx="4" y="1005.36" x="1" height="46" width="46" fill="#1890d0"/>
   </g>
  </clipPath>
  <clipPath id="3">
   <g transform="translate(0,-1004.3622)">
    <rect rx="4" y="1005.36" x="1" height="46" width="46" fill="#1890d0"/>
   </g>
  </clipPath>
 </defs>
 <g>
  <g transform="translate(0,-1004.3622)">
   <path d="m 5,1006.3622 c -2.216,0 -4,1.784 -4,4 l 0,37.25 c 0,2.216 1.784,4 4,4 l 38,0 c 2.216,0 4,-1.784 4,-4 l 0,-37.25 c 0,-2.216 -1.784,-4 -4,-4 l -38,0 z m -4,41.5 0,0.5 c 0,2.216 1.784,4 4,4 l 38,0 c 2.216,0 4,-1.784 4,-4 l 0,-0.5 c 0,2.216 -1.784,4 -4,4 l -38,0 c -2.216,0 -4,-1.784 -4,-4 z" opacity="0.02"/>
   <path d="m 1,1047.6122 0,0.25 c 0,2.216 1.784,4 4,4 l 38,0 c 2.216,0 4,-1.784 4,-4 l 0,-0.25 c 0,2.216 -1.784,4 -4,4 l -38,0 c -2.216,0 -4,-1.784 -4,-4 z" opacity="0.05"/>
   <rect width="46" height="46" x="1" y="1005.61" rx="4" opacity="0.1"/>
  </g>
 </g>
 <g>
  <g transform="translate(0,-1004.3622)">
   <rect rx="4" y="1005.36" x="1" height="46" width="46" fill="#ff7700"/>
  </g>
 </g>
 <g>
  <rect transform="scale(1,-1)" width="46" height="46" x="1" y="-46.998" rx="4" opacity="0.1" fill="url(#1)"/>
 </g>
 <g>
  <g clip-path="url(#2)">
   <g opacity="0.1">
    <g>
     <path d="M 14 11 C 12.339844 11 11 12.339844 11 14 L 11 34 C 11 35.660156 12.339844 37 14 37 L 34 37 C 35.660156 37 37 35.660156 37 34 L 37 14 C 37 12.339844 35.660156 11 34 11 Z M 18 18 L 32 18 L 32 21 C 32 22 31 23 30 23 L 27 23 L 27 34 L 23 34 C 22 34 21 33 21 32 L 21 23 L 16 23 L 16 20 C 16 19 17 18 18 18 Z M 18 18 "/>
     <path d="M 32 18 L 20 14 C 20 15 21 18 22 18 Z M 32 18 "/>
    </g>
   </g>
  </g>
 </g>
 <g>
  <g clip-path="url(#3)">
   <g transform="translate(0,-1)">
    <g>
     <path d="M 14 11 C 12.339844 11 11 12.339844 11 14 L 11 34 C 11 35.660156 12.339844 37 14 37 L 34 37 C 35.660156 37 37 35.660156 37 34 L 37 14 C 37 12.339844 35.660156 11 34 11 Z M 18 18 L 32 18 L 32 21 C 32 22 31 23 30 23 L 27 23 L 27 34 L 23 34 C 22 34 21 33 21 32 L 21 23 L 16 23 L 16 20 C 16 19 17 18 18 18 Z M 18 18 " fill="#f9f9f9"/>
     <path d="M 32 18 L 20 14 C 20 15 21 18 22 18 Z M 32 18 " fill="#ffb47f"/>
    </g>
   </g>
  </g>
 </g>
 <g>
  <g transform="translate(0,-1004.3622)">
   <path d="m 1,1043.3622 0,4 c 0,2.216 1.784,4 4,4 l 38,0 c 2.216,0 4,-1.784 4,-4 l 0,-4 c 0,2.216 -1.784,4 -4,4 l -38,0 c -2.216,0 -4,-1.784 -4,-4 z" opacity="0.1"/>
  </g>
 </g>
</svg>
